X:1
T:Tell the Blessèd News
T:Tell the Blessèd News
T:Hubert Platt Main
T:N. A. Hanna, 1905
T:Public Domain Courtesy of the Cyber Hymnal™
T:Public Domain Courtesy of the Cyber Hymnal™
C:Hubert Platt Main
Z:Public Domain
Z:Courtesy of the Cyber Hymnal™
%%score ( 1 2 ) ( 3 4 )
L:1/8
Q:1/4=110
M:4/4
K:Ab
V:1 treble 
V:2 treble 
V:3 bass 
V:4 bass 
V:1
 [Ec]>[DB] | [CA]2 [CA]2 (AB) [Ec]2 | B6 [Ec]>[E=d] | ([Ae]2 [Ec]4) [EA]>[Ec] | [EB]6 [=Ec]>[EB] | %5
w: 1.~I’m a|sin- ner, saved * by|grace, Praise the|Lord! * Praise the|Lord! I shall|
w: 2.~I have|found a pre- * cious|friend, Praise the|Lord! * Praise the|Lord! He will|
w: 3.~Je- sus|helps me when * I|fall, Praise the|Lord! * Praise the|Lord! Ev- er|
w: 4.~He has|ma- ny bless- * ings|giv’n, Praise the|Lord! * Praise the|Lord! I shall|
 [FA]2 [FA]2 (AB) [Ec]2 | [EB]6 [Ee]>[Ed] | ([Ec]2 [CA]4) [DB]>[Dc] | [CA]6 [CE]>[CE] | %9
w: see my Sav- * ior’s|face, Praise the|Lord! * Praise the|Lord! Tell the|
w: keep me to * the|end, Praise the|Lord! * Praise the|Lord! Je- sus|
w: hears me when * I|call, Praise the|Lord! * Praise the|Lord! He doth|
w: have a home * in|Heav’n, Praise the|Lord! * Praise the|Lord! If I|
 [CA]2 [EA]2 [DF]2 [DE]2 | [EA]6 [Ed]>[Ec] | [FB]2 [FA]2 [EG]2 [=DA]2 | B6 [Ee]>[E=d] | %13
w: bless- èd news a-|round Un- to|earth’s re- mot- est|bound, I was|
w: is so dear to|me, Such a|lov- ing friend is|He, And will|
w: all my sor- rows|share And will|all my bur- dens|bear, Cheers me|
w: al- ways do my|best, I shall|have a glo- rious|rest, Live for-|
 [Ec]2 [Ec]2 (cB) [EA]2 | ([DF]2 [Fd]4) [Fc]>[FB] | ([EA]2 [Ac]4) [GB]>[EB] | [EA]6 |] %17
w: lost, but now * I’m|found, * Praise the|Lord! * Praise the|Lord!|
w: ev- er faith- * ful|be, * Praise the|Lord! * Praise the|Lord!|
w: when I’m in * des-|pair, * Praise the|Lord! * Praise the|Lord!|
w: ev- er with * the|blest, * Praise the|Lord! * Praise the|Lord!|
V:2
 x2 | x4 E2 x2 | (E2 =D2 E2) x2 | x8 | x8 | x4 E2 x2 | x8 | x8 | x8 | x8 | x8 | x8 | %12
 (E2 =D2 E2) x2 | x4 E2 x2 | x8 | x8 | x6 |] %17
V:3
 [A,,A,]>[A,,A,] | [A,,A,]2 [A,,A,]2 ([C,A,][B,,G,]) [A,,A,]2 | %2
 ([E,G,]2 [F,A,]2 [G,B,]2) A,>[A,B,] | (C2 A,4) [A,C]>A, | [E,G,]6 [C,G,]>[C,C] | %5
 [F,C]2 [D,D]2 ([C,A,][B,,G,]) [A,,A,]2 | [E,G,]6 [G,B,]>[G,B,] | A,6 [E,G,]>[E,G,] | %8
 [A,,A,]6 [A,,A,]>[A,,A,] | [A,,E,]2 [C,A,]2 [D,A,]2 [E,G,]2 | %10
 ([C,A,]2 [B,,D]2 [A,,C]2) [B,,G,]>[C,A,] | [D,A,]2 [=D,B,]2 [E,B,]2 [F,B,]2 | %12
 ([G,B,]2 [F,A,]2 [E,G,]2) [G,B,]>[G,B,] | A,2 [A,,A,]2 ([A,,A,][B,,G,]) [C,A,]2 | %14
 [D,A,]6 [D,E]>[D,D] | (C2 E4) [E,D]>[E,D] | [A,,A,C]6 |] %17
V:4
 x2 | x8 | x6 A,3/2 x/ | A,6 A,/ x3/2 | x8 | x8 | x8 | (A,4 E,2) x2 | x8 | x8 | x8 | x8 | x8 | %13
 A,2 x6 | x8 | E,6 x2 | x6 |] %17

